client/public/img/misc/mwheelforward_icon.svg

<?xml version="1.0" encoding="UTF-8" standalone="no"?>
<svg
   width="17"
   height="26"
   viewBox="0 0 17 26"
   fill="none"
   version="1.1"
   id="svg15"
   xmlns="http://www.w3.org/2000/svg"
   xmlns:svg="http://www.w3.org/2000/svg">
  <defs
     id="defs15" />
  <path
     d="M0.49367 18.5288L1.76665 18.125C2.07877 19.1385 2.53703 20.1271 3.11899 21.0186L1.85594 21.5411C1.7498 21.5977 1.69415 21.6058 1.60523 21.4407L0.407984 18.7655C0.351356 18.6198 0.356434 18.5676 0.49367 18.5288Z"
     fill="#333333"
     id="path1" />
  <path
     d="M0.242626 13.8379H1.31916C1.29938 14.2818 1.29158 14.7149 1.29158 15.1053C1.29158 16.0096 1.43168 16.953 1.69484 17.8806L0.408455 18.0064C0.291188 18.017 0.237687 18.0042 0.234364 17.837L0.0648319 14.0284C0.060649 13.895 0.0892838 13.8449 0.242626 13.8379Z"
     fill="#333333"
     id="path2" />
  <path
     d="M15.7667 7.46164C15.9256 8.51853 16.0938 9.63697 16.3505 10.7814H10.666V0.0908203C14.7392 0.627528 15.1925 3.64288 15.7667 7.46164Z"
     fill="#333333"
     id="path3" />
  <path
     d="M10.2355 0.0446783V10.7816H8.2959V0.0446817C8.60019 0.0189946 8.92304 0.00585938 9.26574 0.00585938C9.60841 0.00585938 9.93125 0.0189935 10.2355 0.0446783Z"
     fill="#FF0000"
     id="path4" />
  <path
     d="M7.86513 0.0908203V10.7814H2.18066C2.43737 9.63697 2.60553 8.51855 2.76443 7.46166C3.33859 3.6429 3.79198 0.627543 7.86513 0.0908203Z"
     fill="#333333"
     id="path5" />
  <path
     d="M16.4783 11.3206C16.4693 11.2847 16.4605 11.2488 16.4517 11.2129H2.07962L2.07664 11.2252C2.07142 11.2465 2.06618 11.2679 2.06089 11.2893L2.05311 11.3206C1.79743 12.3489 1.72266 13.9081 1.72266 15.106C1.72266 19.2625 4.83512 24.3565 9.27128 24.3593C13.7074 24.3565 16.8087 19.2625 16.8087 15.106C16.8087 13.9081 16.7339 12.3489 16.4783 11.3206Z"
     fill="#333333"
     id="path6" />
  <path
     d="M12.5381 25.0059H5.99325L8.96413 13.4529H9.56739L12.5381 25.0059Z"
     fill="#732626"
     id="path7" />
  <path
     d="M9.35153 13.6108L9.34138 13.4531H9.19056L9.18042 13.6108H9.35153Z"
     fill="#993333"
     id="path8" />
  <path
     d="M9.35885 13.725L9.37977 14.05H9.15218L9.1731 13.725H9.35885Z"
     fill="#993333"
     id="path9" />
  <path
     d="M9.14292 14.194H9.38899L9.42334 14.7284H9.10857L9.14292 14.194Z"
     fill="#993333"
     id="path10" />
  <path
     d="M9.09556 14.9305H9.43634L9.50083 15.9339H9.03108L9.09556 14.9305Z"
     fill="#993333"
     id="path11" />
  <path
     d="M9.00611 16.322H9.52579L9.62618 17.8838H8.90572L9.00611 16.322Z"
     fill="#993333"
     id="path12" />
  <path
     d="M8.87079 18.4269H9.66108L9.81467 20.8166H8.71715L8.87079 18.4269Z"
     fill="#993333"
     id="path13" />
  <path
     d="M8.66171 21.6786H9.87011L10.084 25.006H8.4478L8.66171 21.6786Z"
     fill="#993333"
     id="path14" />
  <rect
     x="7.94043"
     y="16.9727"
     width="2.64924"
     height="2.49408"
     fill="#FF0000"
     id="rect14" />
  <path
     d="M5.99316 19.4668H12.5376L9.26537 23.6897L5.99316 19.4668Z"
     fill="#FF0000"
     id="path15" />
</svg>

<svg xmlns="http://www.w3.org/2000/svg" width="17" height="26" fill="none"><path fill="#333" d="m.494 18.529 1.273-.404a11.5 11.5 0 0 0 1.352 2.894l-1.263.522c-.106.057-.162.065-.25-.1L.407 18.766c-.057-.146-.052-.198.086-.237m-.25-4.691h1.076c-.02.444-.027.877-.027 1.267 0 .905.14 1.848.403 2.776l-1.287.125c-.117.011-.17-.002-.174-.169l-.17-3.809c-.003-.133.025-.183.179-.19m15.524-6.376c.159 1.057.327 2.175.584 3.32h-5.685V.09c4.073.537 4.527 3.552 5.1 7.37"/><path fill="red" d="M10.236.045v10.737h-1.94V.045q.456-.04.97-.04.513 0 .97.04"/><path fill="#333" d="M7.865.09v10.691H2.181c.256-1.144.425-2.262.583-3.32C3.34 3.644 3.792.629 7.865.092m8.613 11.228-.026-.107H2.08l-.003.012-.016.064-.008.032c-.256 1.028-.33 2.587-.33 3.785 0 4.156 3.112 9.25 7.548 9.253 4.436-.003 7.538-5.097 7.538-9.253 0-1.198-.075-2.757-.33-3.785"/><path fill="#732626" d="M12.538 25.006H5.993l2.971-11.553h.603z"/><path fill="#933" d="m9.352 13.61-.01-.157H9.19l-.01.158zm.007.115.02.325h-.227l.021-.325zm-.216.469h.246l.034.534H9.11zm-.047.736h.34l.065 1.004h-.47zm-.09 1.392h.52l.1 1.562h-.72zm-.136 2.105h.791l.154 2.39H8.717zm-.208 3.252H9.87l.214 3.327H8.448z"/><path fill="red" d="M7.94 16.973h2.649v2.494H7.94zm-1.947 2.494h6.545L9.265 23.69z"/></svg>
